src/32/apps/internet-chat.svg

<?xml version="1.0" encoding="UTF-8" standalone="no"?>
<svg
   xmlns:dc="http://purl.org/dc/elements/1.1/"
   xmlns:cc="http://creativecommons.org/ns#"
   xmlns:rdf="http://www.w3.org/1999/02/22-rdf-syntax-ns#"
   xmlns:svg="http://www.w3.org/2000/svg"
   xmlns="http://www.w3.org/2000/svg"
   xmlns:xlink="http://www.w3.org/1999/xlink"
   xmlns:sodipodi="http://sodipodi.sourceforge.net/DTD/sodipodi-0.dtd"
   xmlns:inkscape="http://www.inkscape.org/namespaces/inkscape"
   id="svg6955"
   height="32"
   width="32"
   version="1.1"
   sodipodi:docname="internet-chat.svg"
   inkscape:version="0.92.4 (5da689c313, 2019-01-14)">
  <sodipodi:namedview
     pagecolor="#ffffff"
     bordercolor="#666666"
     borderopacity="1"
     objecttolerance="10"
     gridtolerance="10"
     guidetolerance="10"
     inkscape:pageopacity="0"
     inkscape:pageshadow="2"
     inkscape:window-width="1366"
     inkscape:window-height="697"
     id="namedview38"
     showgrid="false"
     inkscape:zoom="7.375"
     inkscape:cx="-7.175538"
     inkscape:cy="26.12331"
     inkscape:window-x="0"
     inkscape:window-y="0"
     inkscape:window-maximized="1"
     inkscape:current-layer="svg6955" />
  <defs
     id="defs6957">
    <linearGradient
       id="linearGradient4566">
      <stop
         id="stop4568"
         offset="0"
         style="stop-color:#000000;stop-opacity:1;" />
      <stop
         id="stop4570"
         offset="1"
         style="stop-color:#000000;stop-opacity:0;" />
    </linearGradient>
    <linearGradient
       id="linearGradient4223">
      <stop
         id="stop4225"
         style="stop-color:#d1ff82;stop-opacity:1"
         offset="0" />
      <stop
         id="stop4227"
         style="stop-color:#9bdb4d;stop-opacity:1"
         offset="0.26238" />
      <stop
         id="stop4229"
         style="stop-color:#68b723;stop-opacity:1"
         offset="0.66093999" />
      <stop
         id="stop4231"
         style="stop-color:#3a9104;stop-opacity:1"
         offset="1" />
    </linearGradient>
    <linearGradient
       id="linearGradient4546">
      <stop
         id="stop4548"
         style="stop-color:#ffffff;stop-opacity:1"
         offset="0" />
      <stop
         id="stop4550"
         style="stop-color:#ffffff;stop-opacity:0.23529412"
         offset="0.33333334" />
      <stop
         id="stop4552"
         style="stop-color:#ffffff;stop-opacity:0.15686275"
         offset="0.95056331" />
      <stop
         id="stop4554"
         style="stop-color:#ffffff;stop-opacity:0.39215687"
         offset="1" />
    </linearGradient>
    <radialGradient
       gradientUnits="userSpaceOnUse"
       gradientTransform="matrix(1,0,0,0.33333333,0,25.333333)"
       r="18"
       fy="38"
       fx="26"
       cy="38"
       cx="26"
       id="radialGradient4572"
       xlink:href="#linearGradient4566" />
    <linearGradient
       id="linearGradient4129">
      <stop
         id="stop4131"
         style="stop-color:#8cd5ff;stop-opacity:1"
         offset="0" />
      <stop
         id="stop4133"
         style="stop-color:#64baff;stop-opacity:1"
         offset="0.26238" />
      <stop
         id="stop4135"
         style="stop-color:#3689e6;stop-opacity:1"
         offset="0.704952" />
      <stop
         id="stop4137"
         style="stop-color:#0d52bf;stop-opacity:1"
         offset="1" />
    </linearGradient>
    <radialGradient
       gradientUnits="userSpaceOnUse"
       gradientTransform="matrix(-4.0747474,0,0,-3.9792511,91.345455,50.559369)"
       r="13.5"
       fy="9.1875"
       fx="18"
       cy="9.1875"
       cx="18"
       id="radialGradient3835"
       xlink:href="#linearGradient4129" />
    <clipPath
       id="clipPath3858"
       clipPathUnits="userSpaceOnUse">
      <path
         id="path3860"
         d="m 11,14 c -3.3326486,0 -6,2.667351 -6,6 l 0,2 c 0,3.332649 2.6673514,6 6,6 l 13,0 c 0.259481,0 0.513076,-0.0276 0.78125,-0.0625 L 25.0625,27.90625 25.25,28.125 c 1.056448,1.365618 2.962771,1.79377 4.5,0.90625 0.09957,-0.05749 0.18882,-0.14629 0.28125,-0.21875 C 29.317927,28.296324 28.600709,27.729911 28.0625,27 l -0.25,-0.34375 0.3125,-0.3125 C 29.277198,25.25082 30,23.722169 30,22 l 0,-2 c 0,-3.332649 -2.667351,-6 -6,-6 l -13,0 z"
         style="fill:#8c8c8c;fill-opacity:1;stroke:none" />
    </clipPath>
    <linearGradient
       gradientUnits="userSpaceOnUse"
       y2="28"
       x2="18"
       y1="14"
       x1="18"
       id="linearGradient3868"
       xlink:href="#linearGradient4546" />
    <radialGradient
       r="13.5"
       fy="9.1875"
       fx="18"
       cy="9.1875"
       cx="18"
       gradientTransform="matrix(4.0747474,0,0,-3.9692072,-59.345205,39.467091)"
       gradientUnits="userSpaceOnUse"
       id="radialGradient3872"
       xlink:href="#linearGradient4223" />
    <linearGradient
       y2="28"
       x2="18"
       y1="14"
       x1="18"
       gradientUnits="userSpaceOnUse"
       id="linearGradient3876"
       xlink:href="#linearGradient4546" />
  </defs>
  <metadata
     id="metadata6960">
    <rdf:RDF>
      <cc:Work
         rdf:about="">
        <dc:format>image/svg+xml</dc:format>
        <dc:type
           rdf:resource="http://purl.org/dc/dcmitype/StillImage" />
        <dc:title />
      </cc:Work>
    </rdf:RDF>
  </metadata>
  <path
     style="fill:#c0f471;fill-opacity:1;stroke:#206c00;stroke-width:1;stroke-opacity:0.39215687"
     d="m 21.00025,2.5 c 3.601,0 6.5,2.899 6.5,6.5 l 0,2 c 0,3.601 -2.899,6.5 -6.5,6.5 l -13,0 C 7.71067,17.5 7.435858,17.47385 7.1565,17.4375 5.950917,18.995898 3.753989,19.481272 2.00025,18.46875 1.700648,18.295774 1.454989,18.075336 1.219,17.84375 2.098632,17.311485 2.893744,16.583665 3.5315,15.71875 2.284423,14.535821 1.50025,12.862512 1.50025,11 l 0,-2 c 0,-3.601 2.899,-6.5 6.5,-6.5 l 13,0 z"
     id="path3870" />
  <path
     id="rect3059"
     d="M 11 13.5 C 7.399 13.5 4.5 16.399 4.5 20 L 4.5 22 C 4.5 25.601 7.399 28.5 11 28.5 L 24 28.5 C 24.28958 28.5 24.564392 28.473852 24.84375 28.4375 C 26.049333 29.995898 28.246261 30.481272 30 29.46875 C 30.299602 29.295774 30.545261 29.075336 30.78125 28.84375 C 29.901618 28.311485 29.106506 27.583665 28.46875 26.71875 C 29.715827 25.535821 30.5 23.862512 30.5 22 L 30.5 20 C 30.5 16.399 27.601 13.5 24 13.5 L 11 13.5 z "
     style="fill:#84d0ff;fill-opacity:1;stroke:#002e99;stroke-width:1;stroke-opacity:0.49803922;opacity:0.75" />
  <g
     id="g3878">
    <path
       style="fill:#002e99;fill-opacity:0.49803922;stroke:none"
       d="m 9,23 0,2 2,0 0,-2 -2,0 z m 3,0 0,2 2,0 0,-2 -2,0 z m 3,0 0,2 2,0 0,-2 -2,0 z"
       id="rect3956" />
  </g>
</svg>

<svg xmlns="http://www.w3.org/2000/svg" height="32" width="32"><defs><linearGradient id="a"><stop offset="0"/><stop offset="1" stop-opacity="0"/></linearGradient><linearGradient id="d"><stop offset="0" stop-color="#d1ff82"/><stop offset=".262" stop-color="#9bdb4d"/><stop offset=".661" stop-color="#68b723"/><stop offset="1" stop-color="#3a9104"/></linearGradient><linearGradient id="c"><stop offset="0" stop-color="#fff"/><stop offset=".333" stop-color="#fff" stop-opacity=".235"/><stop offset=".951" stop-color="#fff" stop-opacity=".157"/><stop offset="1" stop-color="#fff" stop-opacity=".392"/></linearGradient><linearGradient id="b"><stop offset="0" stop-color="#8cd5ff"/><stop offset=".262" stop-color="#64baff"/><stop offset=".705" stop-color="#3689e6"/><stop offset="1" stop-color="#0d52bf"/></linearGradient></defs><path d="M21 2.5c3.601 0 6.5 2.899 6.5 6.5v2c0 3.601-2.899 6.5-6.5 6.5H8c-.29 0-.564-.026-.843-.063C5.95 18.997 3.754 19.482 2 18.47a3.918 3.918 0 0 1-.781-.625 8.122 8.122 0 0 0 2.313-2.125A6.484 6.484 0 0 1 1.5 11V9c0-3.601 2.9-6.5 6.5-6.5h13z" fill="#c0f471" stroke="#206c00" stroke-opacity=".392"/><path d="M11 13.5A6.486 6.486 0 0 0 4.5 20v2c0 3.601 2.899 6.5 6.5 6.5h13c.29 0 .564-.026.844-.063 1.205 1.559 3.402 2.044 5.156 1.032.3-.173.545-.394.781-.625a8.122 8.122 0 0 1-2.312-2.125A6.484 6.484 0 0 0 30.5 22v-2c0-3.601-2.899-6.5-6.5-6.5H11z" fill="#84d0ff" stroke="#002e99" stroke-opacity=".498" opacity=".75"/><path d="M9 23v2h2v-2H9zm3 0v2h2v-2h-2zm3 0v2h2v-2h-2z" fill="#002e99" fill-opacity=".498"/></svg>
